X:607
T: Die heiligen zwlf Zahlen (304a), S. 627
N: T0494
O: Luxemburg
S: Singendes Volk, Esch-Alzette 1937 posth.]
N: Beidweiler, hhh Johann Didier, 1933
R: geistliches Lied]
M: 2/4
L: 1/16
K: G
 | B3BB2B2 | B3AG4 |
B3BB2A2 | G3FG4 |
B3BB2A2 | B4G4 |
B2B2B2A2 | c3BA4 |
F2G2A4 | F2G2A2A2 |
B2A2B2G2 | A4G2z2

@@@ Tune index: 8661
